symbols/web/motion_blur/materialsymbolsoutlined/motion_blur_wght200_20px.svg

<svg xmlns="http://www.w3.org/2000/svg" height="20" width="20"><path d="M6.396 13.75q-.188 0-.323-.146t-.135-.312q0-.188.135-.323.135-.136.323-.136h5.416q-.687-.521-1-1.114-.312-.594-.374-1.261H7.854q-.166 0-.312-.146-.146-.145-.146-.312 0-.188.146-.323t.312-.135h2.584q.083-.709.406-1.302.323-.594.968-1.073H3.375q-.187 0-.323-.146-.135-.146-.135-.313 0-.187.135-.323.136-.135.323-.135h10.792q1.562 0 2.656 1.094T17.917 10q0 1.562-1.094 2.656t-2.656 1.094Zm7.771-.917q1.166 0 2-.833.833-.833.833-2t-.833-2q-.834-.833-2-.833-1.167 0-2 .833-.834.833-.834 2t.834 2q.833.833 2 .833ZM2.542 10.458q-.188 0-.323-.146-.136-.145-.136-.312 0-.188.136-.323.135-.135.323-.135h3.52q.188 0 .323.146.136.145.136.312 0 .188-.136.323-.135.135-.323.135Zm.833 3.292q-.187 0-.323-.146-.135-.146-.135-.312 0-.188.135-.323.136-.136.323-.136h1.229q.167 0 .313.146.145.146.145.313 0 .187-.145.323-.146.135-.313.135Z"/></svg>

<svg xmlns="http://www.w3.org/2000/svg" height="20" width="20"><path d="M6.396 13.75Q6.208 13.75 6.073 13.604Q5.938 13.458 5.938 13.292Q5.938 13.104 6.073 12.969Q6.208 12.833 6.396 12.833H11.812Q11.125 12.312 10.812 11.719Q10.5 11.125 10.438 10.458H7.854Q7.688 10.458 7.542 10.312Q7.396 10.167 7.396 10Q7.396 9.812 7.542 9.677Q7.688 9.542 7.854 9.542H10.438Q10.521 8.833 10.844 8.24Q11.167 7.646 11.812 7.167H3.375Q3.188 7.167 3.052 7.021Q2.917 6.875 2.917 6.708Q2.917 6.521 3.052 6.385Q3.188 6.25 3.375 6.25H14.167Q15.729 6.25 16.823 7.344Q17.917 8.438 17.917 10Q17.917 11.562 16.823 12.656Q15.729 13.75 14.167 13.75ZM14.167 12.833Q15.333 12.833 16.167 12Q17 11.167 17 10Q17 8.833 16.167 8Q15.333 7.167 14.167 7.167Q13 7.167 12.167 8Q11.333 8.833 11.333 10Q11.333 11.167 12.167 12Q13 12.833 14.167 12.833ZM2.542 10.458Q2.354 10.458 2.219 10.312Q2.083 10.167 2.083 10Q2.083 9.812 2.219 9.677Q2.354 9.542 2.542 9.542H6.062Q6.25 9.542 6.385 9.688Q6.521 9.833 6.521 10Q6.521 10.188 6.385 10.323Q6.25 10.458 6.062 10.458ZM3.375 13.75Q3.188 13.75 3.052 13.604Q2.917 13.458 2.917 13.292Q2.917 13.104 3.052 12.969Q3.188 12.833 3.375 12.833H4.604Q4.771 12.833 4.917 12.979Q5.062 13.125 5.062 13.292Q5.062 13.479 4.917 13.615Q4.771 13.75 4.604 13.75Z"/></svg>
